X:1
T:[ID 2-47]
T:[ID 2-47]
T:Bezeichnung standardisiert: Tantz Tantz In dieser Quelle auch als: Courant
T:Urheber unbekannt Datum in der hier transkribierten schriftlichen Quelle: 1767
C:Urheber unbekannt
C:Datum in der hier transkribierten schriftlichen Quelle: 1767
L:1/8
M:2/4
K:D
V:1 bass 
V:1
 D,F,A,D | E2 C2 | D2 A,2 | A,B,CA, | D,F,A,D | E2 C2 | DG,A,A,, | D,A,, F,,D,, :: FD D/E/F/D/ | %9
 EC C/D/E/C/ | FD D/E/F/D/ | EC C2 | D,F,A,D | E2 C2 | DG,A,A,, | D,A,, F,,D,, :| %16

